packages/ffe-icons/icons/filled/md/robot.svg

<svg xmlns="http://www.w3.org/2000/svg" height="24" viewBox="0 -960 960 960" width="24"><path d="M360-490.001q29.154 0 49.576-20.423 20.423-20.422 20.423-49.576t-20.423-49.576Q389.154-629.999 360-629.999t-49.576 20.423Q290.001-589.154 290.001-560t20.423 49.576q20.422 20.423 49.576 20.423Zm240 0q29.154 0 49.576-20.423 20.423-20.422 20.423-49.576t-20.423-49.576Q629.154-629.999 600-629.999t-49.576 20.423Q530.001-589.154 530.001-560t20.423 49.576q20.422 20.423 49.576 20.423Zm-250.001 350v-137.691q0-5.385 3.462-8.847 3.462-3.462 8.847-3.462h87.693v150H349.999Zm160 0v-150h87.693q5.385 0 8.847 3.462 3.462 3.462 3.462 8.847v137.691H509.999Zm-297.69 0q-29.827 0-51.067-21.241-21.241-21.24-21.241-51.067V-600q0-91.666 64.167-155.832Q268.334-819.999 360-819.999h240q91.666 0 155.832 64.167Q819.999-691.666 819.999-600v387.691q0 29.827-21.241 51.067-21.24 21.241-51.067 21.241h-77.692v-137.691q0-29.827-21.24-51.067t-51.067-21.24H362.308q-29.827 0-51.067 21.24t-21.24 51.067v137.691h-77.692Z"/></svg>

<svg xmlns="http://www.w3.org/2000/svg" height="24" viewBox="0 -960 960 960" width="24"><path d="M360-490q29.15 0 49.58-20.42Q430-530.85 430-560t-20.42-49.58Q389.15-630 360-630t-49.58 20.42Q290-589.15 290-560t20.42 49.58Q330.85-490 360-490Zm240 0q29.15 0 49.58-20.42Q670-530.85 670-560t-20.42-49.58Q629.15-630 600-630t-49.58 20.42Q530-589.15 530-560t20.42 49.58Q570.85-490 600-490ZM350-140v-137.69q0-5.39 3.46-8.85t8.85-3.46H450v150H350Zm160 0v-150h87.69q5.39 0 8.85 3.46t3.46 8.85V-140H510Zm-297.69 0q-29.83 0-51.07-21.24Q140-182.48 140-212.31V-600q0-91.67 64.17-155.83Q268.33-820 360-820h240q91.67 0 155.83 64.17Q820-691.67 820-600v387.69q0 29.83-21.24 51.07Q777.52-140 747.69-140H670v-137.69q0-29.83-21.24-51.07Q627.52-350 597.69-350H362.31q-29.83 0-51.07 21.24Q290-307.52 290-277.69V-140h-77.69Z"/></svg>
